X:1
T: I am o'er young to marry yet
P:Original very old reel
C:
R:Reel
Q: 232
K:C
M:4/4
L:1/8
|:A|EG GA cd ed|cA Gc de dD|EG GA cd ec|e1/2f1/2g de cC CC|
EG GA cd ed|cA Gc de dD|EG GA cd ec|e1/2f1/2g de cC Cg|
ec gc ef ga|ec gc ed df|ec gc ef ga|ec dB cC Cf|
ec gc ef ga|ec gc ed df|ge fd ec dB|cG AF EC C:|
